src/16/actions/view-right-close.svg

<svg xmlns="http://www.w3.org/2000/svg" viewBox="0 0 16 16">
  <defs id="defs3051">
    <style type="text/css" id="current-color-scheme">
      .ColorScheme-Text {
        color:#5d656b;
      }
      .ColorScheme-NegativeText {
        color:#da4453;
      }
      </style>
  </defs>
  <g
     transform="translate(-421.71429,-531.79074)">
    <path
       style="fill:currentColor;fill-opacity:1;stroke:none" 
       d="M 2 2 L 2 14 L 14 14 L 14 2 L 2 2 z M 3 4 L 6 4 L 6 13 L 3 13 L 3 4 z M 7 4 L 13 4 L 13 13 L 7 13 L 7 4 z "
       transform="translate(421.71429,531.79074)"
     class="ColorScheme-Text"
       id="rect4272" />
    <path
        style="fill:currentColor;fill-opacity:1;stroke:none" 
     class="ColorScheme-NegativeText"
    d="m 433.47167,537.79079 0.70703,0.70703 -1.79296,1.79297 1.79296,1.79297 -0.70703,0.70703 -1.79297,-1.79296 -1.79297,1.79296 -0.70703,-0.70703 1.79296,-1.79297 -1.79296,-1.79297 0.70703,-0.70703 1.79297,1.79296 1.79297,-1.79296 z" />
  </g>
</svg>

<svg xmlns="http://www.w3.org/2000/svg" viewBox="0 0 16 16"><g fill="currentColor"><path d="M2 2v12h12V2H2zm1 2h3v9H3V4zm4 0h6v9H7V4z" color="#5d656b"/><path d="M11.757 6l.707.707L10.671 8.5l1.793 1.793-.707.707-1.793-1.793L8.171 11l-.707-.707L9.257 8.5 7.464 6.707 8.171 6l1.793 1.793L11.757 6z" color="#da4453"/></g></svg>
